src/assets/svg-icons/twitter-light-icon.svg

<svg width="36" height="37" viewBox="0 0 36 37" fill="none" xmlns="http://www.w3.org/2000/svg">
<g clip-path="url(#clip0_2905_12968)">
<path d="M36 7.82212C34.6613 8.40938 33.2347 8.79862 31.7475 8.98762C33.2775 8.07412 34.4453 6.63862 34.9943 4.90837C33.5678 5.75887 31.9927 6.35963 30.3142 6.69488C28.9597 5.25263 27.0292 4.35938 24.9232 4.35938C20.8372 4.35938 17.5477 7.67588 17.5477 11.7416C17.5477 12.3266 17.5972 12.8891 17.7188 13.4246C11.583 13.1254 6.15375 10.1846 2.5065 5.70488C1.86975 6.80963 1.49625 8.07413 1.49625 9.43538C1.49625 11.9914 2.8125 14.2571 4.7745 15.5689C3.58875 15.5464 2.4255 15.2021 1.44 14.6599C1.44 14.6824 1.44 14.7116 1.44 14.7409C1.44 18.3274 3.99825 21.3064 7.353 21.9926C6.75225 22.1569 6.0975 22.2356 5.418 22.2356C4.9455 22.2356 4.4685 22.2086 4.02075 22.1096C4.977 25.0324 7.6905 27.1811 10.917 27.2509C8.406 29.2151 5.21775 30.3986 1.76625 30.3986C1.161 30.3986 0.5805 30.3716 0 30.2974C3.26925 32.4056 7.14375 33.6094 11.322 33.6094C24.903 33.6094 32.328 22.3594 32.328 12.6079C32.328 12.2816 32.3167 11.9666 32.301 11.6539C33.7658 10.6144 34.9965 9.31612 36 7.82212Z" fill="#F5F5F5"/>
</g>
<defs>
<clipPath id="clip0_2905_12968">
<rect width="36" height="36" fill="white" transform="translate(0 0.984375)"/>
</clipPath>
</defs>
</svg>

<svg xmlns="http://www.w3.org/2000/svg" width="36" height="37" fill="none" viewBox="0 0 36 37"><g clip-path="url(#a)"><path fill="#F5F5F5" d="M36 7.822a15.387 15.387 0 0 1-4.253 1.166 7.339 7.339 0 0 0 3.247-4.08 14.75 14.75 0 0 1-4.68 1.787 7.396 7.396 0 0 0-5.39-2.336c-4.087 0-7.376 3.317-7.376 7.383 0 .585.05 1.147.17 1.683-6.135-.3-11.564-3.24-15.212-7.72a7.43 7.43 0 0 0-1.01 3.73 7.391 7.391 0 0 0 3.279 6.134 7.29 7.29 0 0 1-3.335-.91v.082c0 3.586 2.558 6.565 5.913 7.252a7.37 7.37 0 0 1-1.935.243c-.473 0-.95-.027-1.397-.126.956 2.922 3.67 5.071 6.896 5.14a14.83 14.83 0 0 1-9.15 3.149c-.606 0-1.186-.027-1.767-.102 3.27 2.109 7.144 3.312 11.322 3.312 13.581 0 21.006-11.25 21.006-21.001 0-.326-.011-.641-.027-.954 1.465-1.04 2.695-2.338 3.699-3.832Z"/></g><defs><clipPath id="a"><path fill="#fff" d="M0 .984h36v36H0z"/></clipPath></defs></svg>
